X: 379
T: Da zicun
%%abc-version 2.0
%%abcx-abcm2ps-target-version 5.9.1 (29 Sep 2008)
%%abc-creator hum2abc beta
%%abcx-conversion-date 2013/10/02 07:52:30
%%abc-edited-by Helmut Schaffrath
%%humdrum-veritas 894646361
%%humdrum-veritas-data 2966192884
%%continueall 1
%%barnumbers 0
L: 1/16
M: 2/4
K: F
f2 d c d c d f [I:setbarnb 1]| 
c2c4f2 | 
d f d c A2 c d | 
F2F4D2 | 
F F F d c2 c A | 
G2 A c c2 E2 | 
G A G A c2 E2 | 
D2 C D2< E2 D | 
C8 |]  



